src/images/mobile-icons/crown-outline.svg

<svg viewBox="0 0 512 512" xmlns="http://www.w3.org/2000/svg" xmlns:xlink="http://www.w3.org/1999/xlink">
  <title>crown-outline</title>
  <path d="M265.540557,156.62167 C269.669141,158.685962 273.016821,162.033642 275.081113,166.162227 L341.333333,298.666667 L403.486586,248.944065 C412.686841,241.583861 426.111745,243.075517 433.471948,252.275771 C437.327129,257.094748 438.906594,263.347065 437.802638,269.418822 L408.518263,430.482889 C406.673935,440.626691 397.839142,448 387.529038,448 L124.470962,448 C114.160858,448 105.326065,440.626691 103.481737,430.482889 L74.1973615,269.418822 C72.0897199,257.826793 79.7783349,246.721016 91.3703636,244.613374 C97.4421208,243.509419 103.694438,245.088883 108.513414,248.944065 L170.666667,298.666667 L236.918887,166.162227 C242.187991,155.624019 255.002349,151.352566 265.540557,156.62167 Z M256,223.402667 L197.034995,341.335093 L155.828832,341.429471 L126.357333,317.845333 L142.272,405.333333 L369.706667,405.333333 L385.621333,317.845333 L356.186515,341.408657 L314.978562,341.362207 L256,223.402667 Z M437.333333,149.333333 C455.006445,149.333333 469.333333,163.660221 469.333333,181.333333 C469.333333,199.006445 455.006445,213.333333 437.333333,213.333333 C419.660221,213.333333 405.333333,199.006445 405.333333,181.333333 C405.333333,163.660221 419.660221,149.333333 437.333333,149.333333 Z M74.6666667,149.333333 C92.3397787,149.333333 106.666667,163.660221 106.666667,181.333333 C106.666667,199.006445 92.3397787,213.333333 74.6666667,213.333333 C56.9935547,213.333333 42.6666667,199.006445 42.6666667,181.333333 C42.6666667,163.660221 56.9935547,149.333333 74.6666667,149.333333 Z M256,64 C273.673112,64 288,78.326888 288,96 C288,113.673112 273.673112,128 256,128 C238.326888,128 224,113.673112 224,96 C224,78.326888 238.326888,64 256,64 Z" fill="#000" stroke="none" stroke-width="1" fill-rule="evenodd"></path>
</svg>

<svg viewBox="0 0 512 512" xmlns="http://www.w3.org/2000/svg" xmlns:xlink="http://www.w3.org/1999/xlink">
  <title>crown-outline</title>
  <path d="M265.54 156.622a21.333 21.333 0 019.541 9.54l66.252 132.505 62.154-49.723c9.2-7.36 22.625-5.868 29.985 3.332a21.333 21.333 0 014.33 17.143l-29.284 161.064C406.674 440.627 397.84 448 387.53 448H124.471c-10.31 0-19.145-7.373-20.99-17.517L74.198 269.419c-2.107-11.592 5.581-22.698 17.173-24.806a21.333 21.333 0 0117.143 4.331l62.154 49.723 66.252-132.505c5.269-10.538 18.083-14.81 28.622-9.54zm-9.54 66.78l-58.965 117.933-41.206.094-29.472-23.584 15.915 87.488h227.435l15.914-87.488-29.434 23.564-41.208-.047L256 223.402zm181.333-74.069c17.673 0 32 14.327 32 32 0 17.673-14.327 32-32 32-17.673 0-32-14.327-32-32 0-17.673 14.327-32 32-32zm-362.666 0c17.673 0 32 14.327 32 32 0 17.673-14.327 32-32 32-17.673 0-32-14.327-32-32 0-17.673 14.327-32 32-32zM256 64c17.673 0 32 14.327 32 32 0 17.673-14.327 32-32 32-17.673 0-32-14.327-32-32 0-17.673 14.327-32 32-32z" fill="#000" stroke="none" stroke-width="1" fill-rule="evenodd"></path>
</svg>
